X:1
T:Pentland Hills
T:Pentland Hills
T:James Oswald
C:James Oswald
L:1/8
M:3/4
K:G
V:1 treble 
V:1
"^Slow" (BA) | G2 G2 (d>c) | (c2 B2) g>f | e3 f gd | (c2 B2) (B/c/d) | G4 (G/A/B) | E3 e Td>c | %7
 B3 c TA2 | G4 :: (TB>A) | G2 G2 g>f | (Te3 d) B2 | g2 (fe)(f^d) | e4 (e>f) | g2 d2 e2 | %15
 (e<d) (cB)(AG) | d2 (ed)(cB) | B2 TA2 (G>F) | (3EFG G2 d>c |{c} B2 B2 g>f | (e3 f) (gd) | %21
 TB2 B2 (B/c/d) | G4 (3GAB | E4 (e/f/g) | (B3 c) TA2 | G4 :: TB>A | G(A/B/) (c/d/e/f/) g(f/e/) | %28
 (e2 d)c .B/(d/e/f/) | (gd) b(a/g/) (f/e/)(d/c/) | (c2 B) z (3dBF | (F2 G2) d>=F | (=F2 E2) (3gec | %33
 B2 (dc)(TBA) | G4 || (B>A) | G2 (Bd)(gb) | e(f/d/) (g/e/d/c/) B2 |{ga} b3 a Tg>f | e4 (d/e/f) | %40
 (gb)(eg) (3dBg | e(d/B/) d(B/A/) B(A/G/) | (c2 B>)g{f} e(d/c/) | (TB2 A2) (G>F) | %44
 (E/G/F/A/) G2 (g/e/d/c/) | (B/d/c/e/ d/=f/e/g/ ^f/a/g/b/) | c'>b (a/g/f/e/) (d/c/B/c/) | %47
 (c2 B2) d>=F | (=F2 E2) e>G | (G2 ^F2) (G/B/d/g/) | B3 c TA2 | G4 :| %52

